img/quality-features-4.svg

<svg width="27" height="33" viewBox="0 0 27 33" fill="none" xmlns="http://www.w3.org/2000/svg">
<path d="M2.77396 33C2.40979 32.9998 2.04924 32.9278 1.71292 32.7881C1.3766 32.6484 1.07112 32.4439 0.813965 32.186C0.556452 31.9295 0.352095 31.6247 0.212585 31.2891C0.0730763 30.9534 0.00116933 30.5935 0.000976562 30.23C0.00133234 29.866 0.0734948 29.5057 0.213348 29.1697C0.353202 28.8337 0.558 28.5287 0.815979 28.272C1.0732 28.0142 1.37869 27.8096 1.715 27.6699C2.0513 27.5303 2.41182 27.4583 2.77597 27.458H3.79996C3.65868 26.1976 3.83362 24.9219 4.30896 23.7461C4.89596 22.4631 5.97497 21.452 7.86597 20.209C8.19297 19.994 8.45497 19.828 8.71597 19.665C10.184 18.739 11.745 17.7529 11.745 16.7649C11.745 15.7769 10.183 14.794 8.71597 13.865C8.45397 13.701 8.19197 13.536 7.86597 13.321C5.90297 12.031 4.81096 10.9301 4.23996 9.54907C3.78108 8.26883 3.62934 6.8987 3.79697 5.54907H2.77197C2.40777 5.54911 2.04713 5.47709 1.71078 5.3374C1.37444 5.19771 1.069 4.99314 0.811981 4.73511C0.553924 4.4786 0.349128 4.17359 0.209381 3.83765C0.0696338 3.5017 -0.00231934 3.14144 -0.00231934 2.77759C-0.00231934 2.41374 0.0696338 2.05347 0.209381 1.71753C0.349128 1.38159 0.553924 1.07657 0.811981 0.820068C1.0683 0.562198 1.37303 0.357468 1.70871 0.217773C2.04439 0.0780786 2.40439 0.00620861 2.76797 0.00610352H24.221C24.5845 0.00631811 24.9445 0.078329 25.2802 0.218018C25.6158 0.357706 25.9206 0.562286 26.177 0.820068C26.4351 1.07683 26.64 1.38207 26.7798 1.71826C26.9195 2.05446 26.9915 2.41496 26.9915 2.77905C26.9915 3.14315 26.9195 3.50365 26.7798 3.83984C26.64 4.17604 26.4351 4.48128 26.177 4.73804C25.9199 4.99607 25.6145 5.20089 25.2781 5.34058C24.9418 5.48026 24.5812 5.55204 24.217 5.552H23.2C23.368 6.90155 23.2165 8.27169 22.758 9.552C22.187 10.933 21.095 12.034 19.132 13.324C18.8 13.544 18.542 13.7049 18.281 13.8689C16.814 14.7939 15.252 15.78 15.252 16.769C15.252 17.758 16.815 18.7399 18.284 19.6689C18.618 19.8789 18.954 20.092 19.133 20.21C21.026 21.455 22.109 22.444 22.697 23.718C23.1768 24.9025 23.3488 26.1891 23.197 27.458H24.222C24.9574 27.4587 25.6624 27.7515 26.182 28.272C26.4401 28.5286 26.645 28.8337 26.785 29.1697C26.9251 29.5057 26.9974 29.866 26.998 30.23C26.9966 30.9653 26.704 31.67 26.184 32.1899C25.6641 32.7099 24.9593 33.0026 24.224 33.0039L2.77396 33ZM2.77396 31.021H24.227C24.4383 31.021 24.641 30.9375 24.7909 30.7886C24.9408 30.6396 25.0257 30.4374 25.027 30.2261C25.0274 30.122 25.0072 30.0189 24.9678 29.9226C24.9283 29.8263 24.8703 29.7389 24.797 29.665C24.7234 29.5908 24.6358 29.5318 24.5394 29.4915C24.443 29.4511 24.3395 29.4302 24.235 29.4299H2.77396C2.56296 29.4311 2.36099 29.5157 2.21198 29.665C2.13836 29.7387 2.08005 29.8261 2.04041 29.9224C2.00076 30.0186 1.98054 30.1219 1.98096 30.2261C1.98132 30.4371 2.06507 30.6395 2.21396 30.7891C2.3626 30.9374 2.56395 31.0208 2.77396 31.021ZM9.76898 21.3259C9.46098 21.5199 9.15797 21.7111 8.94797 21.8491C7.76824 22.4733 6.78373 23.4111 6.10297 24.5591C5.76032 25.4825 5.64773 26.4752 5.77496 27.4519H21.23C21.3634 26.4686 21.2518 25.4678 20.905 24.5381C20.2177 23.399 19.2317 22.4698 18.054 21.8511C17.697 21.6161 17.469 21.473 17.236 21.325C15.698 20.356 14.083 19.338 13.502 17.906C12.919 19.339 11.3 20.3579 9.76898 21.3259ZM6.06897 8.79907C6.72117 10.0245 7.72574 11.0263 8.95297 11.675C9.16297 11.812 9.46596 12.004 9.77396 12.197C11.31 13.166 12.925 14.184 13.505 15.615C14.086 14.184 15.705 13.166 17.237 12.197C17.544 12.004 17.852 11.81 18.057 11.675C19.2845 11.0267 20.2892 10.0248 20.941 8.79907C21.2811 7.76865 21.3814 6.67418 21.234 5.59912H5.77097C5.62296 6.6745 5.72319 7.76941 6.06396 8.80005L6.06897 8.79907ZM2.21597 2.20801C2.06849 2.35768 1.98581 2.5594 1.98581 2.76953C1.98581 2.97966 2.06849 3.18138 2.21597 3.33105C2.36539 3.48031 2.56776 3.56431 2.77896 3.56494H24.232C24.3364 3.56488 24.4399 3.54431 24.5363 3.50415C24.6328 3.46399 24.7203 3.40516 24.794 3.33105C24.8677 3.25732 24.9262 3.16983 24.9661 3.07349C25.006 2.97714 25.0266 2.87381 25.0266 2.76953C25.0266 2.66525 25.006 2.56192 24.9661 2.46558C24.9262 2.36923 24.8677 2.28174 24.794 2.20801C24.6444 2.05912 24.442 1.97546 24.231 1.9751H2.77396C2.5629 1.97546 2.36055 2.05912 2.21097 2.20801H2.21597Z" fill="#F55767"/>
</svg>

<svg width="27" height="33" fill="none" xmlns="http://www.w3.org/2000/svg"><path d="M2.774 33a2.77 2.77 0 0 1-1.96-.814 2.763 2.763 0 0 1 .002-3.914 2.772 2.772 0 0 1 1.96-.814H3.8a7.635 7.635 0 0 1 .509-3.712c.587-1.283 1.666-2.294 3.557-3.537.327-.215.589-.381.85-.544 1.468-.926 3.029-1.912 3.029-2.9s-1.562-1.971-3.029-2.9a40 40 0 0 1-.85-.544c-1.963-1.29-3.055-2.39-3.626-3.772a8.683 8.683 0 0 1-.443-4H2.772a2.766 2.766 0 0 1-1.96-.814 2.76 2.76 0 0 1 0-3.915A2.76 2.76 0 0 1 2.768.006h21.453a2.761 2.761 0 0 1 1.956.814 2.764 2.764 0 0 1 0 3.918 2.767 2.767 0 0 1-1.96.814H23.2a8.683 8.683 0 0 1-.442 4c-.571 1.381-1.663 2.482-3.626 3.772-.332.22-.59.38-.851.545-1.467.925-3.029 1.911-3.029 2.9 0 .989 1.563 1.97 3.032 2.9.334.21.67.423.849.541 1.893 1.245 2.976 2.234 3.564 3.508a7.567 7.567 0 0 1 .5 3.74h1.025c.735 0 1.44.294 1.96.814a2.766 2.766 0 0 1 .002 3.918c-.52.52-1.225.813-1.96.814L2.774 33Zm0-1.979h21.453a.8.8 0 0 0 .74-1.098.793.793 0 0 0-.732-.493H2.774a.8.8 0 0 0-.734.492.8.8 0 0 0 .174.867c.149.148.35.232.56.232Zm6.995-9.695c-.308.194-.611.385-.821.523a7.25 7.25 0 0 0-2.845 2.71 6.063 6.063 0 0 0-.328 2.893H21.23a6.02 6.02 0 0 0-.325-2.914 7.289 7.289 0 0 0-2.851-2.687c-.357-.235-.585-.378-.818-.526-1.538-.969-3.153-1.987-3.734-3.419-.583 1.433-2.202 2.452-3.733 3.42Zm-3.7-12.527a6.942 6.942 0 0 0 2.884 2.876c.21.137.513.329.821.522 1.536.969 3.151 1.987 3.731 3.418.581-1.431 2.2-2.449 3.732-3.418.307-.193.615-.387.82-.522a6.934 6.934 0 0 0 2.884-2.876c.34-1.03.44-2.125.293-3.2H5.771A7.109 7.109 0 0 0 6.064 8.8h.005ZM2.216 2.208a.8.8 0 0 0 0 1.123.8.8 0 0 0 .563.234h21.453a.793.793 0 0 0 .795-.795.795.795 0 0 0-.796-.795H2.774a.8.8 0 0 0-.563.233h.005Z" fill="#F55767"/></svg>
